X:1
T:Title
%%score [ ( 1 2 ) ( 3 4 ) ]
L:1/8
Q:1/4=120
M:4/4
K:G
V:1 treble nm="Midi_74" snm=" "
V:2 treble 
V:3 bass nm="Midi_74"
V:4 bass 
V:1
"^H.W. Baker\n1821-1877"!mf! B2 |!mp! d2 c2 B2 B2 |"^The King of love" A2 A2 G2 D2 | D3 E F2 G2 | %4
w: The|King of love my|Shep- herd is, Whose|good- ness fail- eth|
w: ||||
w: Per-|verse and fool- ish|oft I strayed, But|yet in love he|
w: ||||
w: Thou|spread'st a tab- le|in my sight; Thy|unc- tion, grace be-|
 B4"^J.B. Dykes\n1823-1876" A2 || d2 | c2 BA B2 B2 | A2 GF G2 E2 | D3 E F2 G2 | (B2 A2) G2 |] %10
w: ne- ver;|I|no- thing * lack if|I am * his And|he is mine for|e * ver.|
w: ||||||
w: sought me,|And|on his * shoul- der|gen- tly * laid, And|home, re- joic- ing,|brought * me.|
w: ||||||
w: stow- eth:|And|O what * trans- port|of de- * light From|thy pure cha- lice|flow * eth!|
"^Unison"!mf! B2 | d2 c2 B2 B2 | A2 A2 G2 D2 | D3 E F2 G2 | B4 A2 || %15
w: And|so through all the|length of days Thy|good- ness fail- eth|ne- ver;|
w: |||||
w: |||||
w: |||||
w: |||||
"^cresc.""^This edition produced by Andrew Sims 2008" d2 | c2 (BA) B2 B2 | A2 (GF) G2 E2 | %18
w: Good|shep- herd, * may I|sing thy * praise With-|
w: |||
w: |||
w: |||
w: |||
 D3 E F2 G2 | (B2 A2) G2 |] %20
w: in thy house for|e * ver.|
w: ||
w: ||
w: ||
w: ||
V:2
 D2 | F2 E2 D2 G2 | G2 F2 E2 D2 | D3 D ^C2 C2 | (D2 G2) F2 || G2 | G2 F2 G2 E2 | E2 ^D2 E2 B,C | %8
w: ||||||||
w: Where|streams of li- ving|wa- ter flow My|ran- somed soul he|lea * deth,|And|where the ver- dant|pas- tures grow With *|
w: ||||||||
w: In|death's dark vale I|fear no ill With|thee, dear Lord, be-|side * me;|Thy|rod and staff my|com- fort still, Thy *|
 C3 C C2 D2 | F4 G2 |] x2 | x8 | x8 | x8 | x6 || x2 | x8 | x8 | x8 | x6 |] %20
w: ||||||||||||
w: food ce- le- stial|feed- eth.|||||||||||
w: ||||||||||||
w: cross be- fore to|guide me.|||||||||||
V:3
!mf! B,2 | A,2 G,A, B,2 D2 | CB, C2 B,2 A,C | C2 B,2 A,2 G,2 | (G,3 B,) D2 || D2 | E2 D2 D2 B,2 | %7
 C2 B,2 B,2 G,2 | F,3 G, A,2 B,2 | C4 B,2 |][M:4/4] z2 | z8 | z8 | z8 | z6 ||[M:4/4] z2 | z8 | z8 | %18
 z8 | z6 |] %20
V:4
 G,2 | D,2 E,F, G,2 B,,C, | D,2 D,2 E,2 F,2 | G,2 G,2 E,2 E,2 | D,4 D,2 || B,2 | A,2 D,2 G,2 G,2 | %7
 F,2 B,,2 E,2 E,C, | D,3 D, D,2 D,2 | D,4 G,,2 |][M:4/4] x2 | x8 | x8 | x8 | x6 ||[M:4/4] x2 | x8 | %17
 x8 | x8 | x6 |] %20

